<?xml version="1.0" encoding="UTF-8"?>
<map version="1.10" tiledversion="1.11.0" orientation="orthogonal" renderorder="right-down" width="60" height="12" tilewidth="64" tileheight="64" infinite="0" nextlayerid="7" nextobjectid="68">
 <editorsettings>
  <export target="level3.lua" format="lua"/>
 </editorsettings>
 <tileset firstgid="1" name="platformer" tilewidth="64" tileheight="64" tilecount="9" columns="3">
  <image source="tileset.png" width="192" height="192"/>
 </tileset>
 <tileset firstgid="10" name="Flag" tilewidth="64" tileheight="64" tilecount="1" columns="1">
  <image source="flag.png" width="64" height="64"/>
 </tileset>
 <layer id="1" name="Tile Layer 1" width="60" height="12">
  <data encoding="csv">
0,0,0,0,0,0,0,0,0,0,0,0,0,0,0,0,0,0,0,0,0,0,0,0,0,0,0,0,0,0,0,0,0,0,0,0,0,0,0,0,0,0,0,0,0,0,0,0,0,0,0,0,0,0,0,0,0,0,0,0,
0,0,0,0,0,0,0,0,0,0,0,0,0,0,0,0,0,0,0,0,0,0,0,0,0,0,0,0,0,0,0,0,0,0,0,0,0,0,0,0,0,0,0,0,0,0,0,0,0,0,0,0,0,0,0,0,0,0,0,0,
0,0,0,0,0,0,0,0,0,0,0,0,0,0,0,0,0,0,0,0,0,0,0,0,0,0,0,0,0,0,0,0,0,0,0,0,0,0,0,0,0,0,0,0,0,0,0,0,0,0,0,0,0,0,0,0,0,0,0,0,
0,0,0,0,0,0,0,0,0,0,0,0,0,0,0,0,0,0,0,0,0,0,0,0,0,0,0,0,0,0,0,0,0,0,0,0,0,0,0,0,0,0,7,8,8,8,8,8,8,8,9,0,0,0,0,0,0,0,0,0,
0,0,0,0,0,0,0,0,0,0,0,0,0,0,0,0,0,0,0,0,0,0,0,0,0,0,0,0,0,0,0,0,0,0,7,8,8,9,0,0,0,0,0,0,0,0,0,0,0,0,0,0,0,0,0,0,0,0,0,0,
0,0,0,0,0,0,0,0,0,0,0,0,7,8,8,9,0,0,0,0,0,0,0,0,0,0,0,0,0,0,0,0,0,0,0,0,0,0,0,0,0,0,0,0,0,0,0,0,0,0,0,0,0,0,0,0,0,0,0,0,
0,0,0,0,0,0,0,0,0,0,0,0,0,0,0,0,0,0,0,0,0,0,0,0,0,0,0,0,0,0,0,7,9,0,0,0,0,0,0,0,0,0,0,0,0,0,0,0,0,0,0,0,0,0,0,0,0,0,0,0,
1,2,2,2,2,2,2,2,2,2,0,0,0,0,0,0,0,0,0,0,0,0,0,0,1,2,2,2,2,3,0,0,0,0,0,0,0,0,0,0,0,0,0,0,0,0,0,0,0,0,0,0,0,0,0,0,0,0,10,0,
4,5,5,5,5,5,5,5,5,5,0,0,0,0,0,0,0,0,0,0,0,0,0,0,4,5,5,5,5,6,0,0,0,0,0,0,0,0,0,0,0,0,0,0,0,0,0,0,0,0,0,0,0,0,2,2,2,2,2,3,
4,5,5,5,5,5,5,5,5,5,0,0,0,0,0,0,0,0,0,7,8,9,0,0,4,5,5,5,5,6,0,0,0,0,0,0,0,0,0,0,0,0,0,0,0,0,0,0,0,0,0,0,0,0,5,5,5,5,5,6,
4,5,5,5,5,5,5,5,5,5,0,0,0,0,0,0,0,0,0,0,0,0,0,0,4,5,5,5,5,6,0,0,0,0,0,0,0,0,0,0,0,0,0,0,0,0,0,0,0,0,0,0,0,0,5,5,5,5,5,6,
4,5,5,5,5,5,5,5,5,5,0,0,0,0,0,0,0,0,0,0,0,0,0,0,4,5,5,5,5,6,0,0,0,0,0,0,0,0,0,0,0,0,0,0,0,0,0,0,0,0,0,0,0,0,5,5,5,5,5,6
</data>
 </layer>
 <objectgroup id="4" name="Flag">
  <object id="61" x="3712" y="448" width="64" height="64"/>
 </objectgroup>
 <objectgroup id="5" name="Start">
  <object id="42" x="64" y="320" width="64" height="64"/>
 </objectgroup>
 <objectgroup id="2" name="Platforms">
  <object id="35" x="1216" y="576" width="192" height="64"/>
  <object id="36" x="768" y="320" width="256" height="64"/>
  <object id="46" x="1536" y="448" width="384" height="320"/>
  <object id="47" x="1984" y="384" width="128" height="64"/>
  <object id="51" x="2688" y="192" width="576" height="64"/>
  <object id="54" x="3456" y="512" width="384" height="256"/>
  <object id="58" x="0" y="448" width="640" height="320"/>
  <object id="63" x="2176" y="256" width="256" height="64"/>
 </objectgroup>
 <objectgroup id="3" name="Enemies">
  <object id="39" x="576" y="384" width="64" height="64">
   <properties>
    <property name="bee" propertytype="EnemyTypes" value="moving"/>
   </properties>
  </object>
  <object id="52" x="3200" y="128" width="64" height="64">
   <properties>
    <property name="bee" propertytype="EnemyTypes" value="moving"/>
   </properties>
  </object>
  <object id="64" x="2048" y="320" width="64" height="64">
   <properties>
    <property name="plant" propertytype="EnemyTypes" value="shooting"/>
   </properties>
  </object>
 </objectgroup>
 <objectgroup id="6" name="Mushrooms">
  <object id="48" x="1344" y="512" width="64" height="64">
   <properties>
    <property name="tiny" propertytype="MushroomTypes" value="tiny"/>
   </properties>
  </object>
  <object id="49" x="2880" y="128" width="64" height="64">
   <properties>
    <property name="tall" propertytype="MushroomTypes" value="tall"/>
   </properties>
  </object>
  <object id="53" x="1216" y="512" width="64" height="64">
   <properties>
    <property name="tiny" propertytype="MushroomTypes" value="tiny"/>
   </properties>
  </object>
  <object id="65" x="1728" y="384" width="64" height="64">
   <properties>
    <property name="tall" propertytype="MushroomTypes" value="tall"/>
   </properties>
  </object>
  <object id="66" x="3072" y="128" width="64" height="64">
   <properties>
    <property name="tall" propertytype="MushroomTypes" value="tall"/>
   </properties>
  </object>
 </objectgroup>
</map>
