<?xml version="1.0" encoding="UTF-8"?>
<map version="1.10" tiledversion="1.11.0" orientation="orthogonal" renderorder="right-down" width="60" height="12" tilewidth="64" tileheight="64" infinite="0" nextlayerid="7" nextobjectid="92">
 <editorsettings>
  <export target="level5.lua" format="lua"/>
 </editorsettings>
 <tileset firstgid="1" name="platformer" tilewidth="64" tileheight="64" tilecount="9" columns="3">
  <image source="tileset.png" width="192" height="192"/>
 </tileset>
 <tileset firstgid="10" name="Flag" tilewidth="64" tileheight="64" tilecount="1" columns="1">
  <image source="flag.png" width="64" height="64"/>
 </tileset>
 <layer id="1" name="Tile Layer 1" width="60" height="12">
  <data encoding="csv">
0,0,0,0,0,0,0,0,0,0,0,0,0,0,0,0,0,0,0,0,0,0,0,0,0,0,0,0,0,0,0,0,0,0,0,0,0,0,0,0,0,0,0,0,0,0,0,0,0,0,0,0,0,0,0,0,0,0,0,0,
0,0,0,0,0,0,0,0,0,0,0,0,0,0,0,0,0,0,0,0,0,0,0,0,0,0,0,0,0,0,0,0,0,0,0,0,0,0,0,0,0,0,0,0,0,0,0,0,0,0,0,0,0,0,0,0,0,0,0,0,
0,0,0,0,0,0,0,0,0,0,0,0,0,0,0,0,0,0,0,0,0,0,0,0,0,0,0,0,0,0,0,0,0,0,0,0,0,0,0,0,0,0,0,0,0,0,0,0,0,0,0,0,0,0,0,0,0,0,0,0,
0,0,0,0,0,0,0,0,0,0,0,0,0,0,0,0,0,0,0,0,0,0,0,0,0,0,0,0,0,0,0,0,0,0,0,0,0,0,0,0,0,0,0,0,0,0,0,0,0,0,0,0,0,0,0,0,0,0,0,0,
0,0,0,0,0,0,0,0,0,0,0,0,0,0,0,0,0,0,0,0,0,0,0,0,0,0,0,0,0,0,0,0,0,0,0,0,0,0,0,0,0,0,0,0,0,0,0,0,0,0,0,0,0,0,0,0,0,0,0,0,
0,0,0,0,0,0,0,0,0,0,0,0,0,0,0,0,0,0,0,0,0,0,0,0,0,0,0,0,0,0,0,0,0,0,0,0,0,0,0,0,0,0,0,0,0,0,0,0,0,0,0,0,0,0,0,0,0,0,0,10,
0,0,0,0,0,0,0,0,0,0,0,0,0,0,0,0,0,0,0,0,0,0,0,0,0,0,0,0,0,0,0,0,0,0,0,0,0,0,0,0,0,0,0,0,0,0,0,0,0,0,0,0,0,0,7,8,8,8,8,9,
0,0,0,0,0,0,0,0,7,8,8,8,8,8,8,8,9,0,0,0,0,0,0,0,0,0,0,0,0,0,0,0,0,0,0,0,0,0,7,9,0,0,0,1,2,2,2,2,2,2,2,2,3,0,0,0,0,0,0,0,
0,0,0,0,0,0,0,0,0,0,0,0,0,0,0,0,0,0,0,0,0,0,0,0,1,2,2,2,2,2,2,3,0,0,0,0,0,0,0,0,0,0,0,4,5,5,5,5,5,5,5,5,6,0,0,0,0,0,0,0,
7,8,8,8,8,9,0,0,0,0,0,0,0,0,0,0,0,0,0,0,0,0,0,0,4,5,5,5,5,5,5,6,0,0,7,8,9,0,0,0,0,0,0,4,5,5,5,5,5,5,5,5,6,0,0,0,0,0,0,0,
0,0,0,0,0,0,0,0,0,0,0,0,0,0,0,0,0,0,0,1,2,2,3,0,4,5,5,5,5,5,5,6,0,0,0,0,0,0,0,0,0,0,0,4,5,5,5,5,5,5,5,5,6,0,0,0,0,0,0,0,
0,0,0,0,0,0,0,0,0,0,0,0,0,0,0,0,0,0,0,4,5,5,6,0,4,5,5,5,5,5,5,6,0,0,0,0,0,0,0,0,0,0,0,4,5,5,5,5,5,5,5,5,6,0,0,0,0,0,0,0
</data>
 </layer>
 <objectgroup id="4" name="Flag">
  <object id="83" x="3776" y="320" width="64" height="64"/>
 </objectgroup>
 <objectgroup id="5" name="Start">
  <object id="73" x="0" y="448" width="64" height="64"/>
 </objectgroup>
 <objectgroup id="2" name="Platforms">
  <object id="84" x="0" y="576" width="384" height="64"/>
  <object id="85" x="512" y="448" width="576" height="64"/>
  <object id="86" x="1216" y="640" width="256" height="128"/>
  <object id="87" x="1536" y="512" width="512" height="256"/>
  <object id="88" x="2176" y="576" width="192" height="64"/>
  <object id="89" x="2432" y="448" width="128" height="64"/>
  <object id="90" x="2752" y="448" width="640" height="320"/>
  <object id="91" x="3456" y="384" width="384" height="64"/>
 </objectgroup>
 <objectgroup id="3" name="Enemies">
  <object id="68" x="320" y="512" width="64" height="64">
   <properties>
    <property name="bee" propertytype="EnemyTypes" value="moving"/>
   </properties>
  </object>
  <object id="69" x="1024" y="384" width="64" height="64">
   <properties>
    <property name="bee" propertytype="EnemyTypes" value="moving"/>
   </properties>
  </object>
  <object id="70" x="512" y="384" width="64" height="64">
   <properties>
    <property name="bee" propertytype="EnemyTypes" value="moving"/>
   </properties>
  </object>
  <object id="72" x="1408" y="576" width="64" height="64">
   <properties>
    <property name="plant" propertytype="EnemyTypes" value="shooting"/>
   </properties>
  </object>
  <object id="74" x="1984" y="448" width="64" height="64">
   <properties>
    <property name="bee" propertytype="EnemyTypes" value="moving"/>
   </properties>
  </object>
  <object id="78" x="3328" y="384" width="64" height="64">
   <properties>
    <property name="plant" propertytype="EnemyTypes" value="shooting"/>
   </properties>
  </object>
  <object id="79" x="2752" y="384" width="64" height="64">
   <properties>
    <property name="bee" propertytype="EnemyTypes" value="moving"/>
   </properties>
  </object>
  <object id="82" x="3456" y="320" width="64" height="64">
   <properties>
    <property name="bee" propertytype="EnemyTypes" value="moving"/>
   </properties>
  </object>
 </objectgroup>
 <objectgroup id="6" name="Mushrooms">
  <object id="71" x="832" y="384" width="64" height="64">
   <properties>
    <property name="tall" propertytype="MushroomTypes" value="tall"/>
   </properties>
  </object>
  <object id="75" x="2176" y="512" width="64" height="64">
   <properties>
    <property name="tall" propertytype="MushroomTypes" value="tall"/>
   </properties>
  </object>
  <object id="76" x="1664" y="448" width="64" height="64">
   <properties>
    <property name="tall" propertytype="MushroomTypes" value="tall"/>
   </properties>
  </object>
  <object id="77" x="2304" y="512" width="64" height="64">
   <properties>
    <property name="tall" propertytype="MushroomTypes" value="tall"/>
   </properties>
  </object>
  <object id="81" x="3648" y="320" width="64" height="64">
   <properties>
    <property name="tall" propertytype="MushroomTypes" value="tall"/>
   </properties>
  </object>
 </objectgroup>
</map>
