<?xml version="1.0" encoding="UTF-8"?>
<map version="1.10" tiledversion="1.11.0" orientation="orthogonal" renderorder="right-down" width="60" height="12" tilewidth="64" tileheight="64" infinite="0" nextlayerid="7" nextobjectid="36">
 <editorsettings>
  <export target="level1.lua" format="lua"/>
 </editorsettings>
 <tileset firstgid="1" name="platformer" tilewidth="64" tileheight="64" tilecount="9" columns="3">
  <image source="tileset.png" width="192" height="192"/>
 </tileset>
 <tileset firstgid="10" name="Flag" tilewidth="64" tileheight="64" tilecount="1" columns="1">
  <image source="flag.png" width="64" height="64"/>
 </tileset>
 <layer id="1" name="Tile Layer 1" width="60" height="12">
  <data encoding="csv">
0,0,0,0,0,0,0,0,0,0,0,0,0,0,0,0,0,0,0,0,0,0,0,0,0,0,0,0,0,0,0,0,0,0,0,0,0,0,0,0,0,0,0,0,0,0,0,0,0,0,0,0,0,0,0,0,0,0,0,0,
0,0,0,0,0,0,0,0,0,0,0,0,0,0,0,0,0,0,0,0,0,0,0,0,0,0,0,0,0,0,0,0,0,0,0,0,0,0,0,0,0,0,0,0,0,0,0,0,0,0,0,0,0,0,0,0,0,0,0,0,
0,0,0,0,0,0,0,0,0,0,0,0,0,0,0,0,0,0,0,0,0,0,0,0,0,0,0,0,0,0,0,0,0,0,0,0,0,0,0,0,0,0,0,0,0,0,0,0,0,0,0,7,9,0,0,0,0,0,0,0,
7,8,8,8,9,0,0,0,0,0,0,0,0,0,0,0,0,0,0,0,0,0,7,8,8,8,8,9,0,0,0,0,0,0,0,0,0,0,0,0,0,0,0,0,0,0,0,0,0,0,0,0,0,0,0,0,0,0,0,0,
0,0,0,0,0,0,0,7,8,9,0,0,0,0,0,0,0,0,0,0,0,0,0,0,0,0,0,0,0,0,0,0,0,0,0,0,0,0,0,0,0,7,8,8,8,8,8,8,9,0,0,0,0,0,0,0,0,0,0,0,
0,0,0,0,0,0,0,0,0,0,0,0,1,2,2,2,2,2,3,0,0,0,0,0,0,0,0,0,0,0,0,0,0,0,0,0,0,0,0,0,0,0,0,0,0,0,0,0,0,0,0,0,0,0,0,0,0,0,0,0,
0,0,0,0,0,0,0,0,0,0,0,0,4,5,5,5,5,5,6,0,0,0,0,0,0,0,0,0,0,0,0,1,2,2,2,2,2,2,3,0,0,0,0,0,0,0,0,0,0,0,0,0,0,0,0,0,0,0,0,0,
0,0,0,0,0,0,0,0,0,0,0,0,4,5,5,5,5,5,6,0,0,0,0,0,0,0,0,0,0,0,0,4,5,5,5,5,5,5,6,0,0,0,0,0,0,0,0,0,0,0,0,0,0,0,0,0,0,0,0,10,
0,0,0,0,0,0,0,0,0,0,0,0,4,5,5,5,5,5,6,0,0,0,0,0,0,0,0,0,0,0,0,4,5,5,5,5,5,5,6,0,0,0,0,0,0,0,0,0,0,0,0,0,0,0,0,0,1,2,2,3,
0,0,0,0,0,0,0,0,0,0,0,0,4,5,5,5,5,5,6,0,0,0,0,0,0,0,0,0,0,0,0,4,5,5,5,5,5,5,6,0,0,0,0,0,0,0,0,0,0,0,0,0,0,0,0,0,4,5,5,6,
0,0,0,0,0,0,0,0,0,0,0,0,4,5,5,5,5,5,6,0,0,0,0,0,0,0,0,0,0,0,0,4,5,5,5,5,5,5,6,0,0,0,0,0,0,0,0,0,0,0,0,0,0,0,0,0,4,5,5,6,
0,0,0,0,0,0,0,0,0,0,0,0,4,5,5,5,5,5,6,0,0,0,0,0,0,0,0,0,0,0,0,4,5,5,5,5,5,5,6,0,0,0,0,0,0,0,0,0,0,0,0,0,0,0,0,0,4,5,5,6
</data>
 </layer>
 <objectgroup id="4" name="Flag">
  <object id="9" x="3776" y="448" width="64" height="64"/>
 </objectgroup>
 <objectgroup id="5" name="Start">
  <object id="11" x="128" y="64" width="64" height="64"/>
 </objectgroup>
 <objectgroup id="2" name="Platforms">
  <object id="1" x="0" y="192" width="320" height="64"/>
  <object id="2" x="768" y="320" width="448" height="448"/>
  <object id="18" x="2624" y="256" width="512" height="64"/>
  <object id="19" x="3264" y="128" width="128" height="64"/>
  <object id="20" x="3584" y="512" width="256" height="256"/>
  <object id="23" x="1984" y="384" width="512" height="384"/>
  <object id="24" x="1408" y="192" width="384" height="64"/>
  <object id="33" x="448" y="256" width="192" height="64"/>
 </objectgroup>
 <objectgroup id="3" name="Enemies">
  <object id="6" x="960" y="256" width="64" height="64">
   <properties>
    <property name="bee" propertytype="EnemyTypes" value="moving"/>
   </properties>
  </object>
  <object id="17" x="2368" y="320" width="64" height="64">
   <properties>
    <property name="bee" propertytype="EnemyTypes" value="moving"/>
   </properties>
  </object>
  <object id="30" x="2688" y="192" width="64" height="64">
   <properties>
    <property name="bee" propertytype="EnemyTypes" value="moving"/>
   </properties>
  </object>
 </objectgroup>
 <objectgroup id="6" name="Mushrooms">
  <object id="21" x="1728" y="128" width="64" height="64">
   <properties>
    <property name="tall" propertytype="MushroomTypes" value="tall"/>
   </properties>
  </object>
  <object id="26" x="3328" y="64" width="64" height="64">
   <properties>
    <property name="tall" propertytype="MushroomTypes" value="tall"/>
   </properties>
  </object>
  <object id="28" x="2176" y="320" width="64" height="64">
   <properties>
    <property name="tiny" propertytype="MushroomTypes" value="tiny"/>
   </properties>
  </object>
  <object id="31" x="1536" y="128" width="64" height="64">
   <properties>
    <property name="tiny" propertytype="MushroomTypes" value="tiny"/>
   </properties>
  </object>
  <object id="32" x="2368" y="320" width="64" height="64">
   <properties>
    <property name="tiny" propertytype="MushroomTypes" value="tiny"/>
   </properties>
  </object>
  <object id="34" x="448" y="192" width="64" height="64">
   <properties>
    <property name="tiny" propertytype="MushroomTypes" value="tiny"/>
   </properties>
  </object>
  <object id="35" x="576" y="192" width="64" height="64">
   <properties>
    <property name="tiny" propertytype="MushroomTypes" value="tiny"/>
   </properties>
  </object>
 </objectgroup>
</map>
