<?xml version="1.0" encoding="UTF-8"?>
<map version="1.10" tiledversion="1.11.0" orientation="orthogonal" renderorder="right-down" width="60" height="12" tilewidth="64" tileheight="64" infinite="0" nextlayerid="7" nextobjectid="51">
 <editorsettings>
  <export target="level2.lua" format="lua"/>
 </editorsettings>
 <tileset firstgid="1" name="platformer" tilewidth="64" tileheight="64" tilecount="9" columns="3">
  <image source="tileset.png" width="192" height="192"/>
 </tileset>
 <tileset firstgid="10" name="Flag" tilewidth="64" tileheight="64" tilecount="1" columns="1">
  <image source="flag.png" width="64" height="64"/>
 </tileset>
 <layer id="1" name="Tile Layer 1" width="60" height="12">
  <data encoding="csv">
0,0,0,0,0,0,0,0,0,0,0,0,0,0,0,0,0,0,0,0,0,0,0,0,0,0,0,0,0,0,0,0,0,0,0,0,0,0,0,0,0,0,0,0,0,0,0,0,0,0,0,0,0,0,0,0,0,0,0,0,
0,0,0,0,0,0,0,0,0,0,0,0,0,0,0,0,0,0,0,0,0,0,0,0,0,0,0,0,0,0,0,0,0,0,0,0,0,0,0,0,0,0,0,0,0,0,0,0,0,0,0,0,0,0,0,0,0,0,0,0,
0,0,0,0,0,0,0,0,0,0,0,0,0,0,0,0,0,0,0,0,0,0,0,0,0,0,0,0,0,0,0,0,0,0,0,0,0,0,0,0,0,0,0,0,0,0,0,0,0,0,0,0,0,0,0,0,0,0,0,0,
0,0,0,0,0,0,0,0,0,0,0,0,0,0,0,0,0,0,0,0,0,0,0,0,0,0,0,0,0,0,0,0,0,0,0,0,0,0,0,0,0,0,0,0,7,8,8,8,8,8,8,8,9,0,0,0,0,0,0,0,
0,0,0,0,0,0,0,7,8,8,8,8,8,9,0,0,0,0,0,0,0,0,0,0,0,0,0,0,0,0,0,1,2,2,2,2,2,2,2,3,0,0,0,0,0,0,0,0,0,0,0,0,0,0,0,0,0,0,0,0,
0,0,0,0,0,0,0,0,0,0,0,0,0,0,0,0,0,1,2,2,2,2,3,0,0,0,0,0,0,0,0,4,5,5,5,5,5,5,5,6,0,0,0,0,0,0,0,0,0,0,0,0,0,0,0,0,0,0,10,0,
1,2,2,2,2,3,0,0,0,0,0,0,0,0,0,0,0,4,5,5,5,5,6,0,0,0,7,8,9,0,0,4,5,5,5,5,5,5,5,6,0,0,0,0,0,0,0,0,0,0,0,0,0,0,0,0,0,2,2,3,
4,5,5,5,5,6,0,0,0,0,0,0,0,0,0,0,0,4,5,5,5,5,6,0,0,0,0,0,0,0,0,4,5,5,5,5,5,5,5,6,0,0,0,0,0,0,0,0,0,0,0,0,0,0,0,0,0,5,5,6,
4,5,5,5,5,6,0,0,0,0,0,0,0,0,0,0,0,4,5,5,5,5,6,0,0,0,0,0,0,0,0,4,5,5,5,5,5,5,5,6,0,0,0,0,0,0,0,0,0,0,0,0,0,0,0,0,0,5,5,6,
4,5,5,5,5,6,0,0,0,0,0,0,0,0,0,0,0,4,5,5,5,5,6,0,0,0,0,0,0,0,0,4,5,5,5,5,5,5,5,6,0,0,0,0,0,0,0,0,0,0,0,0,0,0,0,0,0,5,5,6,
4,5,5,5,5,6,0,0,0,0,0,0,0,0,0,0,0,4,5,5,5,5,6,0,0,0,0,0,0,0,0,4,5,5,5,5,5,5,5,6,0,0,0,0,0,0,0,0,0,0,0,0,0,0,0,0,0,5,5,6,
4,5,5,5,5,6,0,0,0,0,0,0,0,0,0,0,0,4,5,5,5,5,6,0,0,0,0,0,0,0,0,4,5,5,5,5,5,5,5,6,0,0,0,0,0,0,0,0,0,0,0,0,0,0,0,0,0,5,5,6
</data>
 </layer>
 <objectgroup id="4" name="Flag">
  <object id="42" x="3712" y="320" width="64" height="64"/>
 </objectgroup>
 <objectgroup id="5" name="Start">
  <object id="31" x="64" y="256" width="64" height="64"/>
 </objectgroup>
 <objectgroup id="2" name="Platforms">
  <object id="10" x="0" y="384" width="384" height="384"/>
  <object id="11" x="448" y="256" width="448" height="64"/>
  <object id="13" x="1088" y="320" width="384" height="448"/>
  <object id="14" x="1664" y="384" width="192" height="64"/>
  <object id="38" x="2816" y="192" width="576" height="64"/>
  <object id="39" x="3648" y="384" width="192" height="384"/>
  <object id="43" x="1984" y="256" width="576" height="512"/>
 </objectgroup>
 <objectgroup id="3" name="Enemies">
  <object id="26" x="1344" y="256" width="64" height="64">
   <properties>
    <property name="bee" propertytype="EnemyTypes" value="moving"/>
   </properties>
  </object>
  <object id="28" x="2496" y="192" width="64" height="64">
   <properties>
    <property name="bee" propertytype="EnemyTypes" value="moving"/>
   </properties>
  </object>
  <object id="40" x="512" y="192" width="64" height="64">
   <properties>
    <property name="bee" propertytype="EnemyTypes" value="moving"/>
   </properties>
  </object>
  <object id="46" x="2944" y="128" width="64" height="64">
   <properties>
    <property name="bee" propertytype="EnemyTypes" value="moving"/>
   </properties>
  </object>
  <object id="48" x="3328" y="128" width="64" height="64">
   <properties>
    <property name="bee" propertytype="EnemyTypes" value="moving"/>
   </properties>
  </object>
 </objectgroup>
 <objectgroup id="6" name="Mushrooms">
  <object id="33" x="2176" y="192" width="64" height="64">
   <properties>
    <property name="tall" propertytype="MushroomTypes" value="tall"/>
   </properties>
  </object>
  <object id="45" x="2368" y="192" width="64" height="64">
   <properties>
    <property name="tall" propertytype="MushroomTypes" value="tall"/>
   </properties>
  </object>
  <object id="49" x="1792" y="320" width="64" height="64">
   <properties>
    <property name="tall" propertytype="MushroomTypes" value="tall"/>
   </properties>
  </object>
  <object id="50" x="768" y="192" width="64" height="64">
   <properties>
    <property name="tall" propertytype="MushroomTypes" value="tall"/>
   </properties>
  </object>
 </objectgroup>
</map>
