<?xml version="1.0" encoding="UTF-8"?>
<map version="1.10" tiledversion="1.11.0" orientation="orthogonal" renderorder="right-down" width="60" height="12" tilewidth="64" tileheight="64" infinite="0" nextlayerid="7" nextobjectid="68">
 <editorsettings>
  <export target="level4.lua" format="lua"/>
 </editorsettings>
 <tileset firstgid="1" name="platformer" tilewidth="64" tileheight="64" tilecount="9" columns="3">
  <image source="tileset.png" width="192" height="192"/>
 </tileset>
 <tileset firstgid="10" name="Flag" tilewidth="64" tileheight="64" tilecount="1" columns="1">
  <image source="flag.png" width="64" height="64"/>
 </tileset>
 <layer id="1" name="Tile Layer 1" width="60" height="12">
  <data encoding="csv">
0,0,0,0,0,0,0,0,0,0,0,0,0,0,0,0,0,0,0,0,0,0,0,0,0,0,0,0,0,0,0,0,0,0,0,0,0,0,0,0,0,0,0,0,0,0,0,0,0,0,0,0,0,0,0,0,0,0,0,0,
0,0,0,0,0,0,0,0,0,0,0,0,0,0,0,0,0,0,0,0,0,0,0,0,0,0,0,0,0,0,0,0,0,0,0,0,0,0,0,0,0,0,0,0,0,0,0,0,0,0,0,0,0,0,0,0,0,0,0,0,
7,8,9,0,0,0,0,0,0,0,0,0,0,0,0,0,0,0,0,0,0,0,0,0,0,0,0,0,0,0,0,0,0,0,0,0,0,0,0,0,0,0,0,0,0,0,0,0,0,0,0,0,0,0,0,0,0,0,0,0,
0,0,0,0,0,0,0,0,0,0,0,0,0,0,0,0,0,0,0,0,0,0,0,0,0,0,0,0,7,8,9,0,0,0,0,0,0,0,0,0,0,0,0,0,0,0,0,7,8,8,8,8,8,9,0,0,0,0,0,0,
0,0,0,0,0,0,0,0,0,0,0,0,0,0,0,0,0,0,0,0,0,0,0,0,0,0,0,0,0,0,0,0,0,0,0,0,0,0,0,0,0,0,0,0,0,0,0,0,0,0,0,0,0,0,0,0,0,0,0,0,
0,0,0,0,0,0,0,0,0,0,0,0,0,0,0,0,0,0,0,0,0,7,8,8,8,9,0,0,0,0,0,0,0,0,0,0,0,0,0,0,0,0,0,7,9,0,0,0,0,0,0,0,0,0,0,0,0,0,0,10,
0,0,0,0,0,0,0,0,0,0,0,0,0,0,0,0,0,0,0,0,0,0,0,0,0,0,0,0,0,0,0,0,0,0,0,0,0,0,0,0,0,0,0,0,0,0,0,0,0,0,0,0,0,0,0,0,1,2,2,3,
0,0,0,0,0,0,1,2,2,2,2,2,2,2,2,2,2,3,0,0,0,0,0,0,0,0,0,0,0,0,0,0,0,0,1,2,2,2,2,2,2,3,0,0,0,0,0,0,0,0,0,0,0,0,0,0,4,5,5,6,
0,0,0,0,0,0,4,5,5,5,5,5,5,5,5,5,5,6,0,0,0,0,0,0,0,0,0,0,0,0,0,0,0,0,4,5,5,5,5,5,5,6,0,0,0,0,0,0,0,0,0,0,0,0,0,0,4,5,5,6,
0,0,0,0,0,0,4,5,5,5,5,5,5,5,5,5,5,6,0,0,0,0,0,0,0,0,0,0,0,0,0,0,0,0,4,5,5,5,5,5,5,6,0,0,0,0,0,0,0,0,0,0,0,0,0,0,4,5,5,6,
0,0,0,0,0,0,4,5,5,5,5,5,5,5,5,5,5,6,0,0,0,0,0,0,0,0,0,0,0,0,0,0,0,0,4,5,5,5,5,5,5,6,0,0,0,0,0,0,0,0,0,0,0,0,0,0,4,5,5,6,
0,0,0,0,0,0,4,5,5,5,5,5,5,5,5,5,5,6,0,0,0,0,0,0,0,0,0,0,0,0,0,0,0,0,4,5,5,5,5,5,5,6,0,0,0,0,0,0,0,0,0,0,0,0,0,0,4,5,5,6
</data>
 </layer>
 <objectgroup id="4" name="Flag">
  <object id="64" x="3776" y="320" width="64" height="64"/>
 </objectgroup>
 <objectgroup id="5" name="Start">
  <object id="42" x="0" y="0" width="64" height="64"/>
 </objectgroup>
 <objectgroup id="2" name="Platforms">
  <object id="37" x="384" y="448" width="768" height="320"/>
  <object id="38" x="0" y="128" width="192" height="64"/>
  <object id="49" x="1344" y="320" width="320" height="64"/>
  <object id="50" x="1792" y="192" width="192" height="64"/>
  <object id="52" x="2176" y="448" width="512" height="320"/>
  <object id="56" x="3008" y="192" width="448" height="64"/>
  <object id="60" x="2752" y="320" width="128" height="64"/>
  <object id="67" x="3584" y="384" width="256" height="384"/>
 </objectgroup>
 <objectgroup id="3" name="Enemies">
  <object id="39" x="576" y="384" width="64" height="64">
   <properties>
    <property name="bee" propertytype="EnemyTypes" value="moving"/>
   </properties>
  </object>
  <object id="40" x="896" y="384" width="64" height="64">
   <properties>
    <property name="bee" propertytype="EnemyTypes" value="moving"/>
   </properties>
  </object>
  <object id="53" x="2176" y="384" width="64" height="64">
   <properties>
    <property name="bee" propertytype="EnemyTypes" value="moving"/>
   </properties>
  </object>
  <object id="61" x="3392" y="128" width="64" height="64">
   <properties>
    <property name="bee" propertytype="EnemyTypes" value="moving"/>
   </properties>
  </object>
  <object id="66" x="3648" y="320" width="64" height="64">
   <properties>
    <property name="plant" propertytype="EnemyTypes" value="shooting"/>
   </properties>
  </object>
 </objectgroup>
 <objectgroup id="6" name="Mushrooms">
  <object id="44" x="128" y="64" width="64" height="64">
   <properties>
    <property name="tall" propertytype="MushroomTypes" value="tall"/>
   </properties>
  </object>
  <object id="45" x="1408" y="256" width="64" height="64">
   <properties>
    <property name="tall" propertytype="MushroomTypes" value="tall"/>
   </properties>
  </object>
  <object id="46" x="1600" y="256" width="64" height="64">
   <properties>
    <property name="tall" propertytype="MushroomTypes" value="tall"/>
   </properties>
  </object>
  <object id="54" x="2432" y="384" width="64" height="64">
   <properties>
    <property name="tiny" propertytype="MushroomTypes" value="tiny"/>
   </properties>
  </object>
  <object id="62" x="3136" y="128" width="64" height="64">
   <properties>
    <property name="tall" propertytype="MushroomTypes" value="tall"/>
   </properties>
  </object>
  <object id="63" x="3328" y="128" width="64" height="64">
   <properties>
    <property name="tall" propertytype="MushroomTypes" value="tall"/>
   </properties>
  </object>
 </objectgroup>
</map>
